client/public/static/images/use-case-corporate.svg

<svg fill="none" height="64" viewBox="0 0 72 64" width="72" xmlns="http://www.w3.org/2000/svg"><path d="m68.5212 63h-65.04237c-.52464-.0009-1.02762-.314-1.39859-.8707-.37097-.5566-.57965-1.3114-.58024-2.0986v-55.0307h69v55.0307c-.0006.7872-.2093 1.542-.5802 2.0986-.371.5567-.874.8698-1.3986.8707z" fill="#a0aec0"/><path d="m66.4626 60h-60.92516c-.27505-.0005-.53875-.1734-.73324-.4809s-.30389-.7244-.3042-1.1592v-46.7198c.00031-.4348.10971-.8517.3042-1.1592s.45819-.4804.73324-.4809h60.92516c.275.0005.5387.1734.7332.4809s.3039.7244.3042 1.1592v46.7198c-.0003.4348-.1097.8517-.3042 1.1592s-.4582.4804-.7332.4809z" fill="#fff"/><path d="m70.5 7h-69v-2.22666c.00059-.73528.20843-1.44021.57792-1.96013s.87046-.81238 1.393-.81321h65.05818c.5225.00083 1.0235.29329 1.393.81321s.5773 1.22485.5779 1.96013z" fill="#718096"/><path d="m11.5 31.2401c0 .0047.0002.0093.0005.0139.1536 2.3674 1.2223 4.5887 2.9888 6.212 1.7664 1.6233 4.098 2.5268 6.5205 2.5268s4.754-.9035 6.5205-2.5268c1.7664-1.6234 2.8351-3.8446 2.9888-6.212.002-.0293-.0022-.0586-.0123-.0862-.0102-.0277-.026-.0529-.0466-.0743-.0202-.0212-.0447-.0382-.072-.0497-.0272-.0116-.0566-.0175-.0863-.0173h-18.5843c-.0577.0001-.1131.0227-.1539.0627-.0408.0401-.0637.0943-.0637.1509z" fill="#2d3748"/><path d="m27.2591 23.4922c-.0001.0739-.0292.1447-.0811.197l-6.4041 6.4406c-.0256.0259-.056.0465-.0896.0605-.0336.0139-.0695.0211-.1059.021h-8.8016c-.0377.0001-.0751-.0076-.1098-.0227-.0346-.015-.0658-.0372-.0916-.065-.026-.0279-.0461-.0608-.059-.0968s-.0183-.0743-.0158-.1125c.112-1.7719.7131-3.4773 1.7358-4.9246s2.4265-2.5791 4.0535-3.2681c1.6271-.6891 3.413-.9082 5.157-.6327 1.7441.2755 3.3772 1.0347 4.7159 2.1922.0288.0251.0522.0558.0688.0904.0165.0345.0258.0721.0273.1104.0001.0034.0002.0069.0002.0103z" fill="#cbd5e0"/><path d="m17.7499 43.9507c-.0036.3493-.1107.6897-.3077.9781-.197.2885-.4752.512-.7992.6423-.3241.1304-.6795.1617-1.0214.0901-.3419-.0717-.6548-.2431-.8993-.4926-.2444-.2495-.4094-.566-.474-.9092-.0647-.3433-.026-.698.1109-1.0194.137-.3213.3662-.5948.6586-.7858.2924-.1911.6349-.2912.9842-.2876.4682.0053.9152.1962 1.2429.5306.3276.3345.5093.7853.505 1.2535z" fill="#5650de"/><path d="m22.6415 43.9507c-.0036.3493-.1107.6897-.3077.9781-.197.2885-.4752.512-.7992.6423-.3241.1304-.6795.1617-1.0214.0901-.3419-.0717-.6548-.2431-.8993-.4926-.2444-.2495-.4094-.5659-.474-.9092-.0647-.3433-.026-.698.1109-1.0193.137-.3214.3662-.5949.6586-.7859.2924-.1911.6349-.2912.9842-.2876.4682.0053.9152.1962 1.2429.5306.3277.3345.5093.7853.505 1.2535z" fill="#2d3748"/><g fill="#cbd5e0"><path d="m27.5321 43.9507c-.0035.3493-.1106.6897-.3077.9781-.197.2885-.4751.512-.7992.6423-.3241.1304-.6795.1617-1.0214.0901-.3419-.0717-.6548-.2431-.8993-.4926-.2444-.2496-.4094-.5659-.474-.9092s-.026-.698.111-1.0193c.1369-.3214.3661-.5949.6585-.7859.2924-.1911.635-.2912.9842-.2876.4683.0053.9152.1962 1.2429.5306.3277.3345.5093.7853.505 1.2535z"/><path d="m58.5435 23.8192h-17.3487c-.3412 0-.6685.1499-.9097.4168-.2413.2669-.3769.6288-.3769 1.0062s.1356.7393.3769 1.0062c.2412.2669.5685.4168.9097.4168h17.3487c.3412 0 .6685-.1499.9098-.4168s.3768-.6288.3768-1.0062-.1355-.7393-.3768-1.0062-.5686-.4168-.9098-.4168z"/><path d="m58.5436 30.4599h-17.3474c-.2944-.0006-.5802.1106-.8094.315-.2292.2045-.388.4898-.4499.8082s-.023.6507.11.9412c.1331.2906.3523.5218.621.6551.1658.0836.346.1267.5283.1265h17.3474c.3412 0 .6684-.15.9097-.4168.2413-.2669.3768-.6288.3768-1.0062s-.1355-.7394-.3768-1.0062c-.2413-.2669-.5685-.4168-.9097-.4168z"/><path d="m58.5435 38.0492h-17.3487c-.3412 0-.6685.1499-.9097.4167-.2413.2669-.3769.6289-.3769 1.0063s.1356.7393.3769 1.0062c.2412.2668.5685.4168.9097.4168h17.3487c.3412 0 .6685-.15.9098-.4168.2413-.2669.3768-.6288.3768-1.0062s-.1355-.7394-.3768-1.0063c-.2413-.2668-.5686-.4167-.9098-.4167z"/></g><path d="m4.8691 5.44206c.4212 0 .76265-.34145.76265-.76266 0-.4212-.34145-.76265-.76265-.76265s-.76265.34145-.76265.76265c0 .42121.34145.76266.76265.76266z" fill="#fff"/><path d="m7.76461 5.44206c.4212 0 .76265-.34145.76265-.76266 0-.4212-.34145-.76265-.76265-.76265s-.76266.34145-.76266.76265c0 .42121.34146.76266.76266.76266z" fill="#fff"/><path d="m10.6591 5.44206c.4212 0 .7627-.34145.7627-.76266 0-.4212-.3415-.76265-.7627-.76265s-.76262.34145-.76262.76265c0 .42121.34142.76266.76262.76266z" fill="#fff"/><path d="m53.4927 23.8192h-12.3085c-.3384 0-.663.1499-.9023.4168s-.3737.6288-.3737 1.0062.1344.7393.3737 1.0062.5639.4168.9023.4168h12.052c.2439-.1114.4559-.2947.6135-.5302.1576-.2356.2548-.5145.2812-.8069.0263-.2924-.0192-.5873-.1316-.8531s-.2875-.4925-.5066-.6558z" fill="#5650de"/><path d="m48.0457 30.4599h-6.8219c-.3008-.0007-.5926.1157-.8268.3297-.2341.2139-.3963.5125-.4595.8457-.0632.3333-.0235.681.1124.9851.1359.304.3598.546.6342.6855h6.2659c.3967-.0002.7772-.1789 1.0578-.4969.2805-.3179.4382-.7491.4383-1.1988.0022-.4275-.1413-.8396-.4004-1.1503z" fill="#5650de"/><path d="m57.1166 38.0492h-15.9314c-.3387 0-.6635.1499-.903.4167-.2395.2669-.374.6289-.374 1.0063s.1345.7393.374 1.0062c.2395.2668.5643.4168.903.4168h16.0341c.2258-.1485.4113-.3624.5367-.619.1255-.2566.1861-.5463.1756-.8383-.0105-.2919-.0919-.5752-.2354-.8198-.1435-.2445-.3438-.4411-.5796-.5689z" fill="#5650de"/></svg>

<svg width="72" height="64" viewBox="0 0 72 64" fill="none" xmlns="http://www.w3.org/2000/svg">
<path d="M68.5212 63H3.47883C2.95419 62.9991 2.45121 62.686 2.08024 62.1293C1.70927 61.5727 1.50059 60.8179 1.5 60.0307V5H70.5V60.0307C70.4994 60.8179 70.2907 61.5727 69.9198 62.1293C69.5488 62.686 69.0458 62.9991 68.5212 63Z" fill="#A0AEC0"/>
<path d="M66.4626 60H5.53744C5.26239 59.9995 4.99869 59.8266 4.8042 59.5191C4.60971 59.2116 4.50031 58.7947 4.5 58.3599V11.6401C4.50031 11.2053 4.60971 10.7884 4.8042 10.4809C4.99869 10.1734 5.26239 10.0005 5.53744 10H66.4626C66.7376 10.0005 67.0013 10.1734 67.1958 10.4809C67.3903 10.7884 67.4997 11.2053 67.5 11.6401V58.3599C67.4997 58.7947 67.3903 59.2116 67.1958 59.5191C67.0013 59.8266 66.7376 59.9995 66.4626 60Z" fill="white"/>
<path d="M70.5 7H1.5V4.77334C1.50059 4.03806 1.70843 3.33313 2.07792 2.81321C2.44741 2.29329 2.94838 2.00083 3.47092 2H68.5291C69.0516 2.00083 69.5526 2.29329 69.9221 2.81321C70.2916 3.33313 70.4994 4.03806 70.5 4.77334V7Z" fill="#718096"/>
<path d="M11.5 31.2401C11.5 31.2448 11.5002 31.2494 11.5005 31.254C11.6541 33.6214 12.7228 35.8427 14.4893 37.466C16.2557 39.0893 18.5873 39.9928 21.0098 39.9928C23.4323 39.9928 25.7638 39.0893 27.5303 37.466C29.2967 35.8426 30.3654 33.6214 30.5191 31.254C30.5211 31.2247 30.5169 31.1954 30.5068 31.1678C30.4966 31.1401 30.4808 31.1149 30.4602 31.0935C30.44 31.0723 30.4155 31.0553 30.3882 31.0438C30.361 31.0322 30.3316 31.0263 30.3019 31.0265L11.7176 31.0265C11.6599 31.0266 11.6045 31.0492 11.5637 31.0892C11.5229 31.1293 11.5 31.1835 11.5 31.2401Z" fill="#2D3748"/>
<path d="M27.2591 23.4922C27.259 23.5661 27.2299 23.6369 27.178 23.6892L20.7739 30.1298C20.7483 30.1557 20.7179 30.1763 20.6843 30.1903C20.6507 30.2042 20.6148 30.2114 20.5784 30.2113H11.7768C11.7391 30.2114 11.7017 30.2037 11.667 30.1886C11.6324 30.1736 11.6012 30.1514 11.5754 30.1236C11.5494 30.0957 11.5293 30.0628 11.5164 30.0268C11.5035 29.9908 11.4981 29.9525 11.5006 29.9143C11.6126 28.1424 12.2137 26.437 13.2364 24.9897C14.2591 23.5424 15.6629 22.4106 17.2899 21.7216C18.917 21.0325 20.7029 20.8134 22.4469 21.0889C24.191 21.3644 25.8241 22.1236 27.1628 23.2811C27.1916 23.3062 27.215 23.3369 27.2316 23.3715C27.2481 23.406 27.2574 23.4436 27.2589 23.4819C27.259 23.4853 27.2591 23.4888 27.2591 23.4922Z" fill="#CBD5E0"/>
<path d="M17.7499 43.9507C17.7463 44.3 17.6392 44.6404 17.4422 44.9288C17.2452 45.2173 16.967 45.4408 16.643 45.5711C16.3189 45.7015 15.9635 45.7328 15.6216 45.6612C15.2797 45.5895 14.9668 45.4181 14.7223 45.1686C14.4779 44.9191 14.3129 44.6026 14.2483 44.2594C14.1836 43.9161 14.2223 43.5614 14.3592 43.24C14.4962 42.9187 14.7254 42.6452 15.0178 42.4542C15.3102 42.2631 15.6527 42.163 16.002 42.1666C16.4702 42.1719 16.9172 42.3628 17.2449 42.6972C17.5725 43.0317 17.7542 43.4825 17.7499 43.9507Z" fill="#5650DE"/>
<path d="M22.6415 43.9507C22.6379 44.3 22.5308 44.6404 22.3338 44.9288C22.1368 45.2173 21.8586 45.4408 21.5346 45.5711C21.2105 45.7015 20.8551 45.7328 20.5132 45.6612C20.1713 45.5895 19.8584 45.4181 19.6139 45.1686C19.3695 44.9191 19.2045 44.6027 19.1399 44.2594C19.0752 43.9161 19.1139 43.5614 19.2508 43.2401C19.3878 42.9187 19.617 42.6452 19.9094 42.4542C20.2018 42.2631 20.5443 42.163 20.8936 42.1666C21.3618 42.1719 21.8088 42.3628 22.1365 42.6972C22.4642 43.0317 22.6458 43.4825 22.6415 43.9507Z" fill="#2D3748"/>
<path d="M27.5321 43.9507C27.5286 44.3 27.4215 44.6404 27.2244 44.9288C27.0274 45.2173 26.7493 45.4408 26.4252 45.5711C26.1011 45.7015 25.7457 45.7328 25.4038 45.6612C25.0619 45.5895 24.749 45.4181 24.5045 45.1686C24.2601 44.919 24.0951 44.6027 24.0305 44.2594C23.9659 43.9161 24.0045 43.5614 24.1415 43.2401C24.2784 42.9187 24.5076 42.6452 24.8 42.4542C25.0924 42.2631 25.435 42.163 25.7842 42.1666C26.2525 42.1719 26.6994 42.3628 27.0271 42.6972C27.3548 43.0317 27.5364 43.4825 27.5321 43.9507Z" fill="#CBD5E0"/>
<path d="M58.5435 23.8192H41.1948C40.8536 23.8192 40.5263 23.9691 40.2851 24.236C40.0438 24.5029 39.9082 24.8648 39.9082 25.2422C39.9082 25.6196 40.0438 25.9815 40.2851 26.2484C40.5263 26.5153 40.8536 26.6652 41.1948 26.6652H58.5435C58.8847 26.6652 59.212 26.5153 59.4533 26.2484C59.6946 25.9815 59.8301 25.6196 59.8301 25.2422C59.8301 24.8648 59.6946 24.5029 59.4533 24.236C59.212 23.9691 58.8847 23.8192 58.5435 23.8192Z" fill="#CBD5E0"/>
<path d="M58.5436 30.4599H41.1962C40.9018 30.4593 40.616 30.5705 40.3868 30.7749C40.1576 30.9794 39.9988 31.2647 39.9369 31.5831C39.875 31.9015 39.9139 32.2338 40.0469 32.5243C40.18 32.8149 40.3992 33.0461 40.6679 33.1794C40.8337 33.263 41.0139 33.3061 41.1962 33.3059H58.5436C58.8848 33.3059 59.212 33.1559 59.4533 32.8891C59.6946 32.6222 59.8301 32.2603 59.8301 31.8829C59.8301 31.5055 59.6946 31.1435 59.4533 30.8767C59.212 30.6098 58.8848 30.4599 58.5436 30.4599Z" fill="#CBD5E0"/>
<path d="M58.5435 38.0492H41.1948C40.8536 38.0492 40.5263 38.1991 40.2851 38.4659C40.0438 38.7328 39.9082 39.0948 39.9082 39.4722C39.9082 39.8496 40.0438 40.2115 40.2851 40.4784C40.5263 40.7452 40.8536 40.8952 41.1948 40.8952H58.5435C58.8847 40.8952 59.212 40.7452 59.4533 40.4784C59.6946 40.2115 59.8301 39.8496 59.8301 39.4722C59.8301 39.0948 59.6946 38.7328 59.4533 38.4659C59.212 38.1991 58.8847 38.0492 58.5435 38.0492Z" fill="#CBD5E0"/>
<path d="M4.8691 5.44206C5.2903 5.44206 5.63175 5.10061 5.63175 4.6794C5.63175 4.2582 5.2903 3.91675 4.8691 3.91675C4.4479 3.91675 4.10645 4.2582 4.10645 4.6794C4.10645 5.10061 4.4479 5.44206 4.8691 5.44206Z" fill="white"/>
<path d="M7.76461 5.44206C8.18581 5.44206 8.52726 5.10061 8.52726 4.6794C8.52726 4.2582 8.18581 3.91675 7.76461 3.91675C7.34341 3.91675 7.00195 4.2582 7.00195 4.6794C7.00195 5.10061 7.34341 5.44206 7.76461 5.44206Z" fill="white"/>
<path d="M10.6591 5.44206C11.0803 5.44206 11.4218 5.10061 11.4218 4.6794C11.4218 4.2582 11.0803 3.91675 10.6591 3.91675C10.2379 3.91675 9.89648 4.2582 9.89648 4.6794C9.89648 5.10061 10.2379 5.44206 10.6591 5.44206Z" fill="white"/>
<path d="M53.4927 23.8192H41.1842C40.8458 23.8192 40.5212 23.9691 40.2819 24.236C40.0426 24.5029 39.9082 24.8648 39.9082 25.2422C39.9082 25.6196 40.0426 25.9815 40.2819 26.2484C40.5212 26.5153 40.8458 26.6652 41.1842 26.6652H53.2362C53.4801 26.5538 53.6921 26.3705 53.8497 26.135C54.0073 25.8994 54.1045 25.6205 54.1309 25.3281C54.1572 25.0357 54.1117 24.7408 53.9993 24.475C53.8869 24.2092 53.7118 23.9825 53.4927 23.8192Z" fill="#5650DE"/>
<path d="M48.0457 30.4599H41.2238C40.923 30.4592 40.6312 30.5756 40.397 30.7896C40.1629 31.0035 40.0007 31.3021 39.9375 31.6353C39.8743 31.9686 39.914 32.3163 40.0499 32.6204C40.1858 32.9244 40.4097 33.1664 40.6841 33.3059H46.95C47.3467 33.3057 47.7272 33.127 48.0078 32.809C48.2883 32.4911 48.446 32.0599 48.4461 31.6102C48.4483 31.1827 48.3048 30.7706 48.0457 30.4599Z" fill="#5650DE"/>
<path d="M57.1166 38.0492H41.1852C40.8465 38.0492 40.5217 38.1991 40.2822 38.4659C40.0427 38.7328 39.9082 39.0948 39.9082 39.4722C39.9082 39.8496 40.0427 40.2115 40.2822 40.4784C40.5217 40.7452 40.8465 40.8952 41.1852 40.8952H57.2193C57.4451 40.7467 57.6306 40.5328 57.756 40.2762C57.8815 40.0196 57.9421 39.7299 57.9316 39.4379C57.9211 39.146 57.8397 38.8627 57.6962 38.6181C57.5527 38.3736 57.3524 38.177 57.1166 38.0492Z" fill="#5650DE"/>
</svg>
